src/assets/filled/Level.svg

<?xml version="1.0" encoding="UTF-8"?>
<svg width="24" height="24" viewBox="0 0 24 24" xmlns="http://www.w3.org/2000/svg">
 <path d="m12 2c-5.52 0-10 4.48-10 10s4.48 10 10 10 10-4.48 10-10-4.48-10-10-10zm-5 10.75h-2c-0.41 0-0.75-0.34-0.75-0.75s0.34-0.75 0.75-0.75h2c0.41 0 0.75 0.34 0.75 0.75s-0.34 0.75-0.75 0.75zm5 1.5c-1.24 0-2.25-1.01-2.25-2.25s1.01-2.25 2.25-2.25 2.25 1.01 2.25 2.25-1.01 2.25-2.25 2.25zm7-1.5h-2c-0.41 0-0.75-0.34-0.75-0.75s0.34-0.75 0.75-0.75h2c0.41 0 0.75 0.34 0.75 0.75s-0.34 0.75-0.75 0.75z"/>
</svg>

<svg width="24" height="24" viewBox="0 0 24 24"  xmlns="http://www.w3.org/2000/svg">
<path d="M12 2C6.48 2 2 6.48 2 12C2 17.52 6.48 22 12 22C17.52 22 22 17.52 22 12C22 6.48 17.52 2 12 2ZM7 12.75H5C4.59 12.75 4.25 12.41 4.25 12C4.25 11.59 4.59 11.25 5 11.25H7C7.41 11.25 7.75 11.59 7.75 12C7.75 12.41 7.41 12.75 7 12.75ZM12 14.25C10.76 14.25 9.75 13.24 9.75 12C9.75 10.76 10.76 9.75 12 9.75C13.24 9.75 14.25 10.76 14.25 12C14.25 13.24 13.24 14.25 12 14.25ZM19 12.75H17C16.59 12.75 16.25 12.41 16.25 12C16.25 11.59 16.59 11.25 17 11.25H19C19.41 11.25 19.75 11.59 19.75 12C19.75 12.41 19.41 12.75 19 12.75Z" />
</svg>
